public/assets/facebook.svg

<svg width="100" height="100" viewBox="0 0 100 100" fill="none" xmlns="http://www.w3.org/2000/svg">
<path d="M50.0003 0.208008C22.3862 0.208008 0 22.5942 0 50.2083C0 74.9749 18.0261 95.4859 41.6613 99.4577V60.6397H29.5997V46.6707H41.6613V36.3705C41.6613 24.4193 48.9607 17.9066 59.6235 17.9066C64.7304 17.9066 69.1191 18.2872 70.3931 18.4548V30.947L62.9977 30.9505C57.2001 30.9505 56.0824 33.705 56.0824 37.7483V46.6636H69.916L68.1117 60.6326H56.0824V99.7917C80.821 96.7808 100 75.7474 100 50.194C100 22.5942 77.6138 0.208008 50.0003 0.208008Z" fill="#F7D59C"/>
</svg>

<svg width="100" height="100" fill="none" xmlns="http://www.w3.org/2000/svg"><path d="M50 .208c-27.614 0-50 22.386-50 50 0 24.767 18.026 45.278 41.661 49.25V60.64H29.6V46.67H41.66v-10.3c0-11.95 7.3-18.463 17.962-18.463 5.107 0 9.496.38 10.77.548v12.492l-7.395.004c-5.798 0-6.916 2.754-6.916 6.797v8.916h13.834l-1.804 13.969h-12.03v39.159C80.821 96.78 100 75.747 100 50.194 100 22.594 77.614.208 50 .208Z" fill="#F7D59C"/></svg>
